raw-svg/angle-double-up.svg

<svg viewBox="0 0 24 24" xmlns="http://www.w3.org/2000/svg"><path d="m15.5 11.75a.74.74 0 0 1 -.53-.22l-3-3-3 3a.75.75 0 0 1 -.97-1.06l3.47-3.47a.75.75 0 0 1 1.06 0l3.5 3.5a.75.75 0 0 1 0 1.06.74.74 0 0 1 -.53.19z"/><path d="m15.5 17.25a.74.74 0 0 1 -.5-.25l-3-3-3 3a.75.75 0 0 1 -1-1l3.5-3.5a.75.75 0 0 1 1.06 0l3.44 3.5a.75.75 0 0 1 0 1 .74.74 0 0 1 -.5.25z"/></svg>

<svg xmlns="http://www.w3.org/2000/svg" viewBox="0 0 24 24"><g id="angle-double-up"><path d="M15.5,11.75a.74.74,0,0,1-.53-.22l-3-3-3,3A.75.75,0,0,1,8,10.47L11.47,7a.75.75,0,0,1,1.06,0l3.5,3.5a.75.75,0,0,1,0,1.06A.74.74,0,0,1,15.5,11.75Z"/><path d="M15.5,17.25A.74.74,0,0,1,15,17l-3-3L9,17A.75.75,0,0,1,8,16l3.5-3.5a.75.75,0,0,1,1.06,0L16,16A.75.75,0,0,1,16,17,.74.74,0,0,1,15.5,17.25Z"/></g></svg>
